X: 18100
T: Humours Of Ballymanus, The
R: slip jig
M: 9/8
K: Amajor
|:G2 G GFE GFE|G2 G GFE ABc|G2 G GFE GFE|ABA A2 ^G ABc:|
|:c2 d ecA dBG|c2 d ecA efg|c2 d ecA dBG|ABA A2 ^G ABc:|
|:EGE cGE cGE|EGE cGE ABc|EGE cGE cGE|ABA A2 ^G ABc:|
|:E2 E EDC EDC|E2 E EDC FGA|E2 E EDC EDC|FGF F2 ^E FGA:|
|:A2 B cAF BGE|A2 B cAF cde|A2 B cAF BGE|FGF F2 ^E FGA:|
|:CEC AEC AEC|CEC AEC FGA|CEC AEC AEC|FGF BG^E FGA:|

